X:60
T: Gerstebinden
N: Q1135B
O: Mitteleuropa, Deutschland
N: Melodievergleich zu Q0135C, anderes Lied.
R: Reigen - Lied
M: 6/4
L: 1/4
K: G
G | G2GG2G | A3A2
A | _B2A=F2G | A3z2
A | _B2cd2d | d2cA2
c | _B2AG2G | =F2GA2
A | _BA2G2=F | G3-G2

@@@ Tune index: 1558
